dist/img/sprites/icon_whatsapp-black.svg

<svg width="44" height="44" viewBox="0 0 44 44" fill="none" xmlns="http://www.w3.org/2000/svg">
<path d="M22.0018 3.66669C32.1273 3.66669 40.3351 11.8745 40.3351 22C40.3351 32.1255 32.1273 40.3334 22.0018 40.3334C18.7619 40.3386 15.579 39.4812 12.7801 37.8492L3.67582 40.3334L6.15448 31.2254C4.52115 28.4256 3.66307 25.2414 3.66848 22C3.66848 11.8745 11.8763 3.66669 22.0018 3.66669ZM15.7538 13.3834L15.3871 13.398C15.1498 13.4125 14.9178 13.4748 14.7051 13.5814C14.5063 13.694 14.3247 13.8348 14.1662 13.9994C13.9461 14.2065 13.8215 14.3862 13.6876 14.5604C13.0095 15.442 12.6444 16.5244 12.65 17.6367C12.6536 18.535 12.8883 19.4095 13.255 20.2272C14.0048 21.8809 15.2386 23.6317 16.8666 25.2542C17.259 25.6447 17.644 26.037 18.0583 26.4019C20.0812 28.1829 22.4918 29.4673 25.0983 30.1529L26.1397 30.3124C26.4788 30.3307 26.818 30.305 27.159 30.2885C27.6929 30.261 28.2143 30.1164 28.6861 29.865C28.9262 29.7414 29.1605 29.6068 29.3883 29.4617C29.3883 29.4617 29.4672 29.4104 29.6175 29.2967C29.865 29.1134 30.0172 28.9832 30.2225 28.7687C30.3747 28.611 30.5066 28.4259 30.6075 28.215C30.7505 27.9162 30.8935 27.346 30.9521 26.8712C30.9961 26.5082 30.9833 26.3102 30.9778 26.1874C30.9705 25.9912 30.8073 25.7877 30.6295 25.7015L29.5625 25.223C29.5625 25.223 27.9675 24.5282 26.9921 24.0845C26.8901 24.04 26.7807 24.0145 26.6695 24.0094C26.544 23.9965 26.4173 24.0106 26.2978 24.0507C26.1782 24.0909 26.0687 24.1562 25.9765 24.2422C25.9673 24.2385 25.8445 24.343 24.519 25.949C24.4429 26.0513 24.3381 26.1285 24.218 26.171C24.0978 26.2134 23.9677 26.2191 23.8443 26.1874C23.7249 26.1553 23.6079 26.1149 23.4941 26.0664C23.2668 25.971 23.188 25.9344 23.0321 25.8684C21.9799 25.4092 21.0057 24.7888 20.1446 24.0295C19.9136 23.8279 19.6992 23.6079 19.4791 23.3952C18.7579 22.7044 18.1293 21.923 17.6091 21.0705L17.501 20.8964C17.4233 20.7793 17.3605 20.6531 17.314 20.5205C17.2443 20.251 17.4258 20.0347 17.4258 20.0347C17.4258 20.0347 17.8713 19.547 18.0785 19.283C18.2801 19.0264 18.4506 18.777 18.5606 18.5992C18.777 18.2509 18.8448 17.8934 18.7311 17.6165C18.2178 16.3625 17.6861 15.114 17.1398 13.8747C17.0316 13.629 16.7108 13.453 16.4193 13.4182C16.3203 13.4072 16.2213 13.3962 16.1223 13.3889C15.8761 13.3766 15.6294 13.3791 15.3835 13.3962L15.752 13.3815L15.7538 13.3834Z" fill="#23272B"/>
</svg>

<svg width="44" height="44" viewBox="0 0 44 44" fill="none" xmlns="http://www.w3.org/2000/svg"><path d="M22.002 3.667c10.125 0 18.333 8.207 18.333 18.333 0 10.126-8.208 18.333-18.333 18.333a18.25 18.25 0 01-9.222-2.484l-9.104 2.484 2.478-9.108A18.247 18.247 0 013.668 22c0-10.126 8.208-18.333 18.334-18.333zm-6.248 9.716l-.367.015c-.237.014-.47.077-.682.183a2.37 2.37 0 00-.539.418c-.22.207-.345.387-.478.561a5.004 5.004 0 00-1.038 3.077c.004.898.238 1.773.605 2.59.75 1.654 1.984 3.405 3.612 5.027.392.39.777.783 1.191 1.148a17.322 17.322 0 007.04 3.75l1.042.16c.339.019.678-.007 1.019-.024a3.646 3.646 0 001.527-.423 8.83 8.83 0 00.702-.403s.08-.052.23-.165c.247-.184.4-.314.605-.528.152-.158.284-.343.385-.554.142-.299.285-.869.344-1.344.044-.363.031-.56.026-.684-.008-.196-.17-.4-.349-.486l-1.067-.478s-1.595-.695-2.57-1.139a.911.911 0 00-.323-.075.884.884 0 00-.692.233c-.01-.004-.133.101-1.458 1.707a.642.642 0 01-.675.238 2.644 2.644 0 01-.35-.12c-.227-.096-.306-.133-.462-.199a11.047 11.047 0 01-2.887-1.838c-.231-.202-.446-.422-.666-.635a11.55 11.55 0 01-1.87-2.325l-.108-.174a1.693 1.693 0 01-.187-.376c-.07-.269.112-.485.112-.485s.445-.488.652-.752a7.84 7.84 0 00.483-.684c.216-.348.284-.706.17-.983a152.58 152.58 0 00-1.591-3.741c-.108-.246-.43-.422-.72-.457a8.064 8.064 0 00-.298-.03 6.194 6.194 0 00-.739.008l.369-.014.002.001z" fill="#23272B"/></svg>
